X:070 
T:Green Tea Reel, The
S:Bogue
F:file ID: cre.4/070green_t
B:CRE4.095 (Tae Glas)
Q:180 
L:1/8
M:4/4
R:reel
K:D
c|d2dc dAFD|Beed cABc|d2dc dBAF|GEAF D2d:|
g|fdad fddf|gebe geeg|fdad fddg|fedc d2 dg|
fdad fddf|gebe geeg|fdec dBAF|GEAF D4 |]

%%%

